X:180

T:Baulk, The

M:C|

L:1/8

B:Thompson’s Compleat Collection of 200 Favourite Country Dances, vol. 2 (London, 1765)

Z:Transcribed and edited by Flynn Titford-Mock, 2007

Z:abc’s:AK/Fiddler’s Companion

K:Gmin

G2D4 =E^f|G4 B4|A2-F2f2c2|A4 c4|B2G2g2a2|^f4 d4|edcB ABcA|B2G2 G4:|
|:G3 B/c/ d3 B/c/|d2B2G2B2|F3 A/B/ c3A/B/|c2A2F2A2|G3 g/a/ b3a/g/|^f2g2a2^f2|d2g2 ^fgaf|g4 g4:||

 

BAULTHY OURA. AKA and see "Baltiorum," "Baltighoran [2]." Irish. ABCD. A four-part variant of "Baltighoran" as printed by Bunting and O'Neill, appearing in O'Farrell's Pocket Companion, volume IV, pg. 108.

                       

BAVANIA. AKA and see “The Rover Reformed.”

                       

BAXTER’S BIG. AKA and see "The Fisherman's Widow,” “The Friendly Neighbor,” “The Rambling Pitchfork,” “St. Patricks Day in the Evening.”

                       

BAXTER'S RANT. Scottish, Reel. The tune appears in a MS inscribed "A Collection of the best Highland Reels written by David Young, W.M. & Accomptant."

                       

BAY AND THE GREY, THE. Irish, Jig and Air. G Major. Standard tuning. AB. Joyce (Old Irish Folk Music and Songs), 1909; No. 146, pg. 74.

